X: 1
T: Banshee, The
T: McMahon's
R: Reel
D: Dusty Banjos: Live at The Crane
M: C|
K: G
"G"~G3D EDB,D|"Am"GFGB "D7"d2Bd|"G"eged "Em"BAGA|"C"BAGE "D7"EDDE|
"G"~G3D EDB,D|"Am"GFGB "D7"d2Bd|"G"eged "Em"BAGA|"C"BAGE "D7"EDD2:|
|:"Am"eaag efge|"G"dBBA "(Bm)"B3d|"Em"eB~B2 gBfB|eBBA B3z|
  "Am"eaag efge|"G"dBBA B3d|"C"eged "G"BAGA|"Am"BAGE "D7"EDD2:|

